X:75
T:Grim King of the Ghosts
Z:Jack Campin, http://www.campin.me.uk/
F:Jack Campin's Nine-Note Tunebook
% last edit 03-02-2013
S:Simpson, The British Broadside Ballad and Its Music
M:3/4
L:1/4
Q:1/4=100
K:FMin
  C   |F=E F|A G  F    |G2 C   |A G  c|A> G F|F2:|
|:B   |c c F|d c (B/A/)|B2 c/B/|A> G A|F B  A|G2
  C/C/|F=E F|A G  F    |G2 C   |A G  c|A> G F|F2:|

